picto/ramp-down-left.svg

<svg class="color-immutable" width="24" height="24" viewBox="0 0 24 24" fill="none" xmlns="http://www.w3.org/2000/svg"><g clip-path="url(#a)"><path d="M0 22.5v-21C0 .675.675 0 1.5 0h21c.825 0 1.5.675 1.5 1.5v21c0 .825-.675 1.5-1.5 1.5h-21C.675 24 0 23.325 0 22.5Z" fill="#2D327D"/><path d="M21 21.001H6.75v-.6L21 18.076v2.925ZM3.515 11.604a.507.507 0 0 1-.198-.972l.958-.407v1.1l-.562.238a.481.481 0 0 1-.198.041Z" fill="#fff"/><path d="M4.875 13.051V7.467a1.5 1.5 0 0 1 2.727-.863l1.561 2.219a.749.749 0 0 1 .137.432v2.989a.506.506 0 1 1-1.012 0V9.468l-.713-1.012V16.2l1.323 2.259a.713.713 0 0 1-1.229.721l-1.491-2.546a.751.751 0 0 1-.103-.379v-2.284l-1.65 2.839v3.29A.712.712 0 0 1 3 20.1v-3.62c0-.132.035-.262.101-.377l1.774-3.052ZM6.161 5.606a1.313 1.313 0 1 1 .002-2.626 1.313 1.313 0 0 1-.002 2.626Z" fill="#fff"/></g><defs><clipPath id="a"><path fill="#fff" d="M0 0h24v24H0z"/></clipPath></defs></svg>

<svg class="color-immutable" width="24" height="24" viewBox="0 0 24 24" fill="none" xmlns="http://www.w3.org/2000/svg"><path d="M0 22.5V1.5C0 0.675 0.675 0 1.5 0H22.5C23.325 0 24 0.675 24 1.5V22.5C24 23.325 23.325 24 22.5 24H1.5C0.675 24 0 23.325 0 22.5Z" fill="#2D327D"/><path d="M21 21.001H6.75V20.401L21 18.076V21.001Z" fill="white"/><path d="M3.51497 11.604C3.23597 11.604 3.00897 11.377 3.00897 11.098C3.00897 10.895 3.12997 10.712 3.31697 10.632L4.27497 10.225V11.325L3.71297 11.563C3.65097 11.591 3.58297 11.604 3.51497 11.604Z" fill="white"/><path d="M4.875 13.051V7.467C4.875 6.639 5.547 5.967 6.375 5.967C6.863 5.967 7.32 6.205 7.602 6.604L9.163 8.823C9.252 8.949 9.3 9.1 9.3 9.255V12.244C9.3 12.524 9.073 12.75 8.794 12.75C8.514 12.75 8.288 12.523 8.288 12.244V9.468L7.575 8.456V16.2L8.898 18.459C8.963 18.569 8.996 18.693 8.996 18.819C8.996 19.212 8.677 19.532 8.284 19.532C8.031 19.532 7.797 19.397 7.669 19.18L6.178 16.634C6.111 16.52 6.075 16.388 6.075 16.255V13.971L4.425 16.81V20.1C4.425 20.493 4.106 20.812 3.713 20.812C3.319 20.813 3 20.494 3 20.1V16.48C3 16.348 3.035 16.218 3.101 16.103L4.875 13.051Z" fill="white"/><path d="M6.161 5.606C5.437 5.606 4.849 5.018 4.849 4.293C4.849 3.568 5.437 2.981 6.161 2.981C6.886 2.981 7.473 3.569 7.473 4.293C7.474 5.018 6.886 5.606 6.161 5.606Z" fill="white"/></svg>
